X: 08032
T: DAWSON'S HORNPIPE
C: Bob McQuillen 15 Nov 90
B: Bob's Note Book 8 #32
%R: hornpipe, reel
Z: 2021 John Chambers <jc:trillian.mit.edu>
M: C
L: 1/8
K: D
dB \
| A2de fedB | ABdf edBd | A2dB ABdf | afdf e2fg |\
| a2fa bafe | defd edBA | fafd edBd | A2d2 d2 :|
|: fg \
| a2fd edBd | fafd edfe | d2dB ABde | fgab a2fg |\
| a2ba geag | fafd edBA | dfaf gecd | e2d2 d2 :|
%%begintext align
%% Saray Dawson is one of the mainstays of
%% the Madbury dance, and it's always nice
%% to see her when I play over there - I sure
%% hope you like dancing to this tune, Sarah!
%%endtext

%%sep 1 1 500

%%sep 1 1 500

